X:1
T:Title
%%score 1 2
L:1/8
Q:1/4=90
M:3/4
K:Ab
V:1 treble nm="Strings 1, SOPRANO ALTO"
V:2 bass nm="Strings 1, TENOR BASS"
V:1
 z2 z2 [CA][DB] | [Ec]4 [Ec][Ec] | [Ec]4 [EB][EA] | [FA]4 [Fd][Fd] | [Fd]4 [Fd][Fd] | %5
w: 1.~When~ my~|soul~ is~ op|pressed~ with~ the~|sor rows~ of~|life,~ And~ the~|
 [Ec]4 [CA][CA] | [EB]4 [EA][EB] | [Ec]4 [CA][DB] | [Ec]4 [Ec][Ec] | [Ee]4 [_Ge][Ge] | %10
w: thought~ of~ the~|mor row~ a|larms;~ With~ my~|care lad en~|heart,~ then,~ I~|
 [Fd]4 [FA][=EB] | [Ec]4 [Ec][Ec] | [DB]4 [CA][CA] | [Ec]4 [DB][DB] | [CA]4 [EA][EA] | %15
w: flee~ from~ the~|strife,~ And~ I~|weep~ out~ my~|woes~ in~ His~|arms.~ * *|
 [EG]4 [EB][EB] | [EB]4 [EB][EB] | [EA]4 [Ec][Ec] | [Ec]4 [Ec][_Gc] | [Fd]4 [Fd][Fd] | %20
w: |||||
 [Ec]4 [Ec][Ec] | [EB]4 [Ge][Ed] | [Ec]4 [Ec][Ec] | [Ee]4 [Ed][Ec] | [EB]4 [FB][Fc] | %25
w: |||||
 [Fd]4 [EA][FB] | [Ec]4 [Ed][Ed] | [Ec]4 [DB][DB] | [CA]4 z2 |] %29
w: ||||
V:2
 z2 z2 [A,,E,][A,,E,] | [A,,A,]4 [A,,A,][A,,A,] | [A,,A,]4 [B,,G,][C,A,] | [D,A,]4 [D,A,][D,A,] | %4
 [D,A,]4 [D,A,][D,A,] | [A,,A,]4 [F,A,][F,A,] | [E,G,]4 [C,A,][E,G,] | A,4 A,A, | A,4 A,A, | %9
 [A,C]4 [C,A,][C,A,] | [D,A,]4 [D,A,][D,A,] | [A,,A,]4 [A,,A,][A,,A,] | [E,G,]4 [F,A,][F,A,] | %13
 [E,A,]4 [E,,E,G,][E,,E,G,] | [A,,A,]4 [A,,C][A,,C] | [E,B,]4 [E,D][E,D] | [E,D]4 [E,D][G,D] | %17
 [A,C]4 A,A, | A,4 A,A, | [D,A,]4 [D,A,][D,A,] | [A,,A,]4 [A,,A,][A,,A,] | [E,G,]4 [E,B,][G,B,] | %22
 A,4 A,A, | [A,C]4 [E,B,][E,A,] | [E,G,]4 [D,B,][C,=A,] | [B,,B,]4 [C,A,][C,A,] | %26
 [E,A,]4 [E,B,][E,B,] | [E,A,]4 [E,,E,G,][E,,E,G,] | [A,,E,A,]4 z2 |] %29

